packages/calcite-ui-icons/icons/parcel-16.svg

<?xml version="1.0" encoding="UTF-8"?><svg id="icons" xmlns="http://www.w3.org/2000/svg" viewBox="0 0 16 16"><path d="M7,7h1v1h-1v-1ZM15,3v4h1v3h-1.59277l-3.40723,3.40723v2.59277h-3v-1H3v1H0v-3h1V3H0V0h3v1h10V0h3v3h-1ZM14,3h-1v-1H3v1h-1v10h1v1h5v-1h1.99316l3.00684-3.00684v-2.99316h1V3Z"/><rect y="0" width="16" height="16" style="fill:none;"/></svg>

<svg xmlns="http://www.w3.org/2000/svg" viewBox="0 0 16 16"><path d="M7 7h1v1H7V7zm8-4v4h1v3h-1.593L11 13.407V16H8v-1H3v1H0v-3h1V3H0V0h3v1h10V0h3v3h-1zm-1 0h-1V2H3v1H2v10h1v1h5v-1h1.993L13 9.993V7h1V3z"/><path fill="none" d="M0 0h16v16H0z"/></svg>
